X:3286
T:Con McGinley's
R:Reel
S:
H:
N:
D:Maiden Voyage
Z:Adrian Scahill
M:4/4
L:1/8
K:D
AFF2 AdFG|AFdF eFdF|AFF2 ABde|f2af edBd:||\
defg a3f|b3f a3f|defg a2fa|bfaf egfe|\
defg a3f|b3f a3f|g3e f3e|defd efdB||\


